X:1
T:Title
%%score { ( 1 4 ) | ( 2 3 ) }
L:1/8
M:9/8
K:E
V:1 treble nm="Grand Piano"
V:4 treble 
V:2 bass 
V:3 bass 
V:1
 z3 z3[Q:1/4=100] E2 F | [B,G]3- [B,G]2 A [B,G]FE | F6 D2 E | [A,F]3- [A,F]2 A [CA]GF | E6 G2 G | %5
 [B,G]3- [B,G]2 E [G,E]FG | [CA]6 cBA | [B,G]3- [B,G]2 E [B,G]2 F | [G,E]6 z3 | %9
[M:6/8] [DF]2 [DF] [EG]2 [EG] | [FA]2 [EG] [DF]3 | G2 G G2 [FA] | [GB]2 [FA] [EG]3 | %13
 [GB]2 [GB] [Ge]2 [Ac] |[M:15/16] [GB]->[GB][B,EG][EGB]3/2- [EGB]3 |[M:3/4] z2 z F z2 | %16
 [B,EG]2 [A,DF][K:bass] [E,B,E]3 |] %17
V:2
 z3 z3 G,2 A, | E,3 z2 C z A,G, | [B,,A,]6 F,2 G, | B,,3 z2 C z B,A, | [E,G,]6 B,2 B, | %5
 E,3 z2 G, z A,B, | A,,6 EDC | B,,3 z2 G, z2 A, | E,,6 z3 | %9
[M:6/8] [B,,B,]2 [B,,B,] [B,,B,]2 [B,,B,] | [B,,B,]2 [B,,B,] [B,,B,]3 | %11
 [E,B,E]2 [E,B,E] [E,B,E]2 [E,B,] | [E,E]2 [E,B,] [E,B,]3 | [E,E]2 [E,E] [E,B,]2 [E,E] | %14
[M:15/16] [E,E]->[E,E]E,E,3/2- E,3 |[M:3/4] G,,2 .G,,2 GA,, | B,,2 B,, E,,3 |] %17
V:3
 x9 | z3 E,3 E,3 | x9 | z3 B,,3 B,,3 | x9 | z3 E,3 E,3 | x9 | z3 B,,3 B,,3 | x9 |[M:6/8] x6 | x6 | %11
 x6 | x6 | x6 |[M:15/16] x15/2 |[M:3/4] z2 z .A,,3 | x6 |] %17
V:4
 x9 | x9 | x9 | x9 | x9 | x9 | x9 | x9 | x9 |[M:6/8] x6 | x6 | x6 | x6 | x6 |[M:15/16] x15/2 | %15
[M:3/4] [B,E]2 [B,E] [CE]2 [CEA] | x3[K:bass] x3 |] %17

